X:167
T:Reel Beaulieu
M:2/4
L:1/16
R:Reel
S:Pascal Gemme
K:Amix
ed |:c2B2 AcBA | FBAF E2EA | BABc dBB2 | ABcd efed |
c2B2 AcBA | FBAF E2EA | BABc dBB2 |1 Acec Afed :|2 Acec A4 |:
a3b afed | cAce a2ef | g2ga gedB | GGBd g2fg |
a2ab afed | cAce a2ee | efec dcBd |1 cA(3AAA A2fg :|2 cA(3AAA A2ed |]

